app/img/star.svg

<?xml version="1.0" encoding="UTF-8" standalone="no"?>
<svg width="60px" height="38px" viewBox="0 0 60 38" version="1.1" xmlns="http://www.w3.org/2000/svg" xmlns:xlink="http://www.w3.org/1999/xlink">
    <!-- Generator: Sketch 44.1 (41455) - http://www.bohemiancoding.com/sketch -->
    <title>Shape</title>
    <desc>Created with Sketch.</desc>
    <defs></defs>
    <g id="Page-1" stroke="none" stroke-width="1" fill="none" fill-rule="evenodd">
        <g id="star" fill-rule="nonzero" fill="#FFFFFF">
            <path d="M60,13 L60,0 L0,0 L0,13 C3.3137085,13 6,15.6862915 6,19 C6,22.3137085 3.3137085,25 3.6739404e-16,25 L3.6739404e-16,38 L60,38 L60,25 C56.6862916,24.9999999 54.0000001,22.3137084 54.0000001,19 C54.0000001,15.6862916 56.6862916,13.0000001 60,13 Z M37.2,29.51 L30,26.23 L22.8,29.51 L23.72,21.69 L18.36,15.9 L26.12,14.35 L30,7.49 L33.88,14.35 L41.64,15.9 L36.28,21.69 L37.2,29.51 Z" id="Shape"></path>
        </g>
    </g>
</svg>

<svg xmlns="http://www.w3.org/2000/svg" viewBox="0 0 60 38"><title>Asset 6</title><g id="Layer_2" data-name="Layer 2"><g id="Layer_1-2" data-name="Layer 1"><path d="M60,13V0H0V13a6,6,0,0,1,6,6,6,6,0,0,1-6,6V38H60V25a6,6,0,0,1,0-12ZM37.2,29.51,30,26.23l-7.2,3.28.92-7.82L18.36,15.9l7.76-1.55L30,7.49l3.88,6.86,7.76,1.55-5.36,5.79Z"/></g></g></svg>
